cards-playing-club-outline.svg

<svg fill="currentColor" viewBox="0 0 24 24"><path d="M17 2H7c-1.1 0-2 .9-2 2v16c0 1.1.9 2 2 2h10c1.1 0 2-.9 2-2V4c0-1.1-.9-2-2-2m0 18H7V4h10zM12 8c-1.1 0-2 .9-2 2 0 .4.1.7.3 1H10c-1.1 0-2 .9-2 2s.9 2 2 2c.6 0 1.1-.3 1.5-.7l-1 2.7h3l-1-2.7c.4.4.9.7 1.5.7 1.1 0 2-.9 2-2s-.9-2-2-2h-.3c.2-.3.3-.7.3-1 0-1.1-.9-2-2-2"/></svg>

<svg  viewBox="0 0 24 24" fill="currentColor"><path  d="M17 2H7C5.9 2 5 2.9 5 4V20C5 21.1 5.9 22 7 22H17C18.1 22 19 21.1 19 20V4C19 2.9 18.1 2 17 2M17 20H7V4H17V20M12 8C10.9 8 10 8.9 10 10C10 10.4 10.1 10.7 10.3 11H10C8.9 11 8 11.9 8 13S8.9 15 10 15C10.6 15 11.1 14.7 11.5 14.3L10.5 17H13.5L12.5 14.3C12.9 14.7 13.4 15 14 15C15.1 15 16 14.1 16 13S15.1 11 14 11H13.7C13.9 10.7 14 10.3 14 10C14 8.9 13.1 8 12 8Z"/></svg>
